X:1
T:The Longford Collector
R:reel
M:4/4
L:1/8
K:G
|:G2GA Bd~d2|eB~B2 eBdB|G2GA B2dB|A2AB GEDE|
|G2GA Bd~d2|eB~B2 d2ef|gfga gedB|1 AcBA GEDE:|2 AcBA GE~E2|]
|:gfga gedg|eB~B2 d2ef|gfga gedB|AcBA GE~E2|
|gfga gedg|eB~B2 d2ef|gbaf gedB|1 AcBA GE~E2:|2 AcBA GEDE|]